X:331
T:Reel 331
M:4/4
K:Amix
L:1/8
ED|CA,A,C E2DB,| (3CB,A, EC DCB,D| (3CCA, EF G2FG|AFGE DFED|CA, (3A,G,A, E2ED|CA,A,C E2DB,|CB,CD EFGE| (3cBA BG AGED||CB,CD E2EF|GEDC B,G,G,D|CDCD EFGA|BcAG ECED|CDCD EFGF|EAAG EAAB|cABG AGED|CA,B,C D2|
